src/images/icons/publications.svg

<svg width="100" height="100" viewBox="0 0 100 100" version="1.1" xmlns="http://www.w3.org/2000/svg" xmlns:xlink="http://www.w3.org/1999/xlink"><title>publications</title><desc>Created using Figma</desc><g id="Canvas" transform="matrix(2 0 0 2 -1200 -100)"><clipPath id="clip-0" clip-rule="evenodd"><path d="M 0 0L 1398 0L 1398 646L 0 646L 0 0Z" fill="#FFF"/></clipPath><g id="Frame" clip-path="url(#clip-0)"><path d="M 0 0L 1398 0L 1398 646L 0 646L 0 0Z" fill="#FFF"/><g id="publications"><g id="Rectangle"><use xlink:href="#path0_fill" transform="matrix(-1 0 0 1 620 61)" fill="#FFF"/><use xlink:href="#path1_stroke" transform="matrix(-1 0 0 1 620 61)"/></g><g id="Rectangle"><use xlink:href="#path2_fill" transform="translate(608.5 58)" fill="#FFF"/><use xlink:href="#path3_stroke" transform="translate(608.5 58)"/></g><g id="Rectangle"><use xlink:href="#path4_fill" transform="translate(617 63)"/><use xlink:href="#path5_stroke" transform="translate(617 63)"/></g><g id="Rectangle"><use xlink:href="#path6_fill" transform="translate(617 71)" fill="#FFF"/><use xlink:href="#path7_stroke" transform="translate(617 71)"/></g><g id="Rectangle"><use xlink:href="#path8_fill" transform="translate(625 71)" fill="#FFF"/><use xlink:href="#path9_stroke" transform="translate(625 71)"/></g><g id="Line"><use xlink:href="#path10_stroke" transform="translate(624 80)"/></g><g id="Line"><use xlink:href="#path10_stroke" transform="translate(624 84)"/></g></g></g></g><defs><path id="path0_fill" d="M 14 0L 0 0L 0 30L 11 30C 12.6569 30 14 28.6569 14 27L 14 0Z"/><path id="path1_stroke" d="M 14 0L 15 0L 15 -1L 14 -1L 14 0ZM 0 0L 0 -1L -1 -1L -1 0L 0 0ZM 0 30L -1 30L -1 31L 0 31L 0 30ZM -1 0L -1 30L 1 30L 1 0L -1 0ZM 0 31L 11 31L 11 29L 0 29L 0 31ZM 15 27L 15 0L 13 0L 13 27L 15 27ZM 14 -1L 0 -1L 0 1L 14 1L 14 -1ZM 11 31C 13.2091 31 15 29.2091 15 27L 13 27C 13 28.1046 12.1046 29 11 29L 11 31Z"/><path id="path2_fill" d="M 3.5 0L 35.5 0L 35.5 30C 35.5 31.6569 34.1569 33 32.5 33L 0 33L 0.5 33C 2.15685 33 3.5 31.6569 3.5 30L 3.5 0Z"/><path id="path3_stroke" d="M 3.5 0L 3.5 -1L 2.5 -1L 2.5 0L 3.5 0ZM 35.5 0L 36.5 0L 36.5 -1L 35.5 -1L 35.5 0ZM 3.5 1L 35.5 1L 35.5 -1L 3.5 -1L 3.5 1ZM 34.5 0L 34.5 30L 36.5 30L 36.5 0L 34.5 0ZM 32.5 32L 0 32L 0 34L 32.5 34L 32.5 32ZM 0 34L 0.5 34L 0.5 32L 0 32L 0 34ZM 4.5 30L 4.5 0L 2.5 0L 2.5 30L 4.5 30ZM 0.5 34C 2.70914 34 4.5 32.2091 4.5 30L 2.5 30C 2.5 31.1046 1.60457 32 0.5 32L 0.5 34ZM 34.5 30C 34.5 31.1046 33.6046 32 32.5 32L 32.5 34C 34.7091 34 36.5 32.2091 36.5 30L 34.5 30Z"/><path id="path4_fill" d="M 0 0L 22 0L 22 4L 0 4L 0 0Z"/><path id="path5_stroke" d="M 0 0L 0 -1L -1 -1L -1 0L 0 0ZM 22 0L 23 0L 23 -1L 22 -1L 22 0ZM 22 4L 22 5L 23 5L 23 4L 22 4ZM 0 4L -1 4L -1 5L 0 5L 0 4ZM 0 1L 22 1L 22 -1L 0 -1L 0 1ZM 21 0L 21 4L 23 4L 23 0L 21 0ZM 22 3L 0 3L 0 5L 22 5L 22 3ZM 1 4L 1 0L -1 0L -1 4L 1 4Z"/><path id="path6_fill" d="M 0 0L 4 0L 4 9L 0 9L 0 0Z"/><path id="path7_stroke" d="M 0 0L 0 -1L -1 -1L -1 0L 0 0ZM 4 0L 5 0L 5 -1L 4 -1L 4 0ZM 4 9L 4 10L 5 10L 5 9L 4 9ZM 0 9L -1 9L -1 10L 0 10L 0 9ZM 0 1L 4 1L 4 -1L 0 -1L 0 1ZM 3 0L 3 9L 5 9L 5 0L 3 0ZM 4 8L 0 8L 0 10L 4 10L 4 8ZM 1 9L 1 0L -1 0L -1 9L 1 9Z"/><path id="path8_fill" d="M 0 0L 14 0L 14 4L 0 4L 0 0Z"/><path id="path9_stroke" d="M 0 0L 0 -1L -1 -1L -1 0L 0 0ZM 14 0L 15 0L 15 -1L 14 -1L 14 0ZM 14 4L 14 5L 15 5L 15 4L 14 4ZM 0 4L -1 4L -1 5L 0 5L 0 4ZM 0 1L 14 1L 14 -1L 0 -1L 0 1ZM 13 0L 13 4L 15 4L 15 0L 13 0ZM 14 3L 0 3L 0 5L 14 5L 14 3ZM 1 4L 1 0L -1 0L -1 4L 1 4Z"/><path id="path10_stroke" d="M 1 -2L 0 -2L 0 0L 1 0L 1 -2ZM 15 0L 16 0L 16 -2L 15 -2L 15 0ZM 1 0L 15 0L 15 -2L 1 -2L 1 0Z"/></defs></svg>

<svg viewBox="0 0 100 100" xmlns="http://www.w3.org/2000/svg" xmlns:xlink="http://www.w3.org/1999/xlink"><title>publications</title><desc>Created using Figma</desc><g transform="matrix(2 0 0 2 -1200 -100)"><clipPath id="a" clip-rule="evenodd"><path d="M0 0h1398v646H0V0z" fill="#FFF"/></clipPath><g clip-path="url(#a)"><path d="M0 0h1398v646H0V0z" fill="#FFF"/><g transform="matrix(-1 0 0 1 620 61)"><use xlink:href="#path0_fill" fill="#FFF"/><use xlink:href="#path1_stroke"/></g><g transform="translate(608.5 58)"><use xlink:href="#path2_fill" fill="#FFF"/><use xlink:href="#path3_stroke"/></g><g transform="translate(617 63)"><use xlink:href="#path4_fill"/><use xlink:href="#path5_stroke"/></g><g transform="translate(617 71)"><use xlink:href="#path6_fill" fill="#FFF"/><use xlink:href="#path7_stroke"/></g><g transform="translate(625 71)"><use xlink:href="#path8_fill" fill="#FFF"/><use xlink:href="#path9_stroke"/></g><use xlink:href="#path10_stroke" transform="translate(624 80)"/><use xlink:href="#path10_stroke" transform="translate(624 84)"/></g></g><defs><path id="path0_fill" d="M14 0H0v30h11c1.6569 0 3-1.3431 3-3V0z"/><path id="path1_stroke" d="M14 0h1v-1h-1v1zM0 0v-1h-1v1h1zm0 30h-1v1h1v-1zM-1 0v30h2V0h-2zm1 31h11v-2H0v2zm15-4V0h-2v27h2zM14-1H0v2h14v-2zm-3 32c2.2091 0 4-1.7909 4-4h-2c0 1.1046-.8954 2-2 2v2z"/><path id="path2_fill" d="M3.5 0h32v30c0 1.6569-1.3431 3-3 3H0h.5c1.65685 0 3-1.3431 3-3V0z"/><path id="path3_stroke" d="M3.5 0v-1h-1v1h1zm32 0h1v-1h-1v1zm-32 1h32v-2h-32v2zm31-1v30h2V0h-2zm-2 32H0v2h32.5v-2zM0 34h.5v-2H0v2zm4.5-4V0h-2v30h2zm-4 4c2.20914 0 4-1.7909 4-4h-2c0 1.1046-.89543 2-2 2v2zm34-4c0 1.1046-.8954 2-2 2v2c2.2091 0 4-1.7909 4-4h-2z"/><path id="path4_fill" d="M0 0h22v4H0V0z"/><path id="path5_stroke" d="M0 0v-1h-1v1h1zm22 0h1v-1h-1v1zm0 4v1h1V4h-1zM0 4h-1v1h1V4zm0-3h22v-2H0v2zm21-1v4h2V0h-2zm1 3H0v2h22V3zM1 4V0h-2v4h2z"/><path id="path6_fill" d="M0 0h4v9H0V0z"/><path id="path7_stroke" d="M0 0v-1h-1v1h1zm4 0h1v-1H4v1zm0 9v1h1V9H4zM0 9h-1v1h1V9zm0-8h4v-2H0v2zm3-1v9h2V0H3zm1 8H0v2h4V8zM1 9V0h-2v9h2z"/><path id="path8_fill" d="M0 0h14v4H0V0z"/><path id="path9_stroke" d="M0 0v-1h-1v1h1zm14 0h1v-1h-1v1zm0 4v1h1V4h-1zM0 4h-1v1h1V4zm0-3h14v-2H0v2zm13-1v4h2V0h-2zm1 3H0v2h14V3zM1 4V0h-2v4h2z"/><path id="path10_stroke" d="M1-2H0v2h1v-2zm14 2h1v-2h-1v2zM1 0h14v-2H1v2z"/></defs></svg>
